icons/vlc.svg

<?xml version="1.0" encoding="UTF-8"?>
<svg xmlns="http://www.w3.org/2000/svg" height="100" width="100">
  <path d="M20 94a3 3 0 010-6h7L47 8h6l20 80h7a3 3 0 010 6z" fill="#f72"/>
  <path d="M35.5 54l2-8h25l2 8z" fill="#eee"/>
</svg>

<?xml version="1.0" encoding="UTF-8"?>
<svg xmlns="http://www.w3.org/2000/svg" version="1.1" height="100" width="100" viewBox="0 0 100 100">
  <defs>
    <linearGradient x1="100" y1="10" x2="0" y2="10" id="Gradient0" gradientUnits="userSpaceOnUse">
      <stop style="stop-color:#FFCB91;stop-opacity:1" offset="0" />
      <stop style="stop-color:#F4850A;stop-opacity:1" offset="1" />
    </linearGradient>
    <linearGradient x1="100" y1="10" x2="0" y2="10" id="Gradient1" gradientUnits="userSpaceOnUse">
      <stop style="stop-color:#FFF;stop-opacity:1" offset="0" />
      <stop style="stop-color:#CCC;stop-opacity:1" offset="1" />
    </linearGradient>
  </defs>
  <path style="fill:url(#Gradient0)" d="M 20,94 A 3,3 0 0 1 20,88 L 27,88 L 47,8 L 53,8 L 73,88 L 80,88 A 3,3 0 0 1 80,94 z"/>
  <path style="fill:url(#Gradient1)" d="M 35.5,54 37.5,46 62.5,46 64.5,54 z"/>

</svg>
